X:533
T:Peas Upon aTrencher
M:2/4
L:1/8
B:O'Neill's 533
N:Moderate
Z:Transcribed by Dave Wooldridge
K:G
(D/2F/2) \
| (G>FG>A) | B2 B>B | (A>GA>B) | {d}c2 (B>A) |
(G>FG>A) | (B>cd>g) | (d>B{d}(c>A) | G3 ||
g \
| g>GGA | B2 B>B | (c>A)(A>B) | c2 (B>A) |
(G>FG>A) | B>cdHg | d>B{d}cA | G3 ||


